src/assets/selectIcons/armatura_7.svg

<svg xmlns="http://www.w3.org/2000/svg" viewBox="0 0 512 512" style="height: 512px; width: 512px;"><path d="M0 0h512v512H0z" fill="#000" fill-opacity="1"></path><g class="" transform="translate(0,0)" style=""><path d="M41.637 149.081c-8 8-12.614 12.191-15.688 18.338a24.99 24.99 0 0 0-.762 1.693c2.524 3.111 8.067 7.313 15.913 11.319.122-2.589.387-3.834.95-4.961.927-1.854 4.313-5.662 12.313-13.662zm428.726 0l-12.726 12.727c8 8 11.386 11.808 12.312 13.662.564 1.127.829 2.372.951 4.96 7.846-4.005 13.39-8.207 15.913-11.318a24.987 24.987 0 0 0-.762-1.693c-3.074-6.147-7.688-10.338-15.688-18.338zM25 192.235v40.46c2.57 3.827 8.588 8.77 17.594 13.35-.09-7.824-.051-16.625.42-25.1.371-6.692.974-13.156 2.113-19.067-.933-.362-1.857-.727-2.768-1.098-6.406-2.606-12.164-5.418-17.359-8.545zm462 0c-5.195 3.127-10.953 5.94-17.36 8.545-.91.37-1.834.736-2.767 1.098 1.139 5.911 1.742 12.375 2.113 19.066.471 8.476.51 17.277.42 25.102 9.006-4.58 15.024-9.524 17.594-13.352zm-287.947 4.21l-28.782 116.92L247 362.918v-53.037l32-16v-36.875l-32-16v-44.563zm65.947 0v33.437l32 16v59.125l-32 16v41.912l76.727-49.555-28.78-116.92zm-202.592 11.32c-.652 4.18-1.138 9.07-1.422 14.18-.6 10.81-.439 22.186-.238 31.54 10.017 3.447 21.35 6.541 33.205 9.176 3.023.672 6.078 1.305 9.143 1.916.167-11.67.634-24.206 1.959-36.127.382-3.437.808-6.83 1.314-10.152a577.925 577.925 0 0 1-10.223-2.047c-11.617-2.446-23.062-5.26-33.738-8.486zm387.184 0c-10.676 3.225-22.121 6.04-33.738 8.486a577.929 577.929 0 0 1-10.223 2.047c.506 3.321.932 6.715 1.314 10.152 1.325 11.921 1.792 24.456 1.96 36.127 3.064-.611 6.12-1.244 9.142-1.916 11.855-2.635 23.188-5.729 33.205-9.176.201-9.354.362-20.73-.238-31.54-.284-5.11-.77-10-1.422-14.18zm-325.36 13.69a143.349 143.349 0 0 0-1.287 8.983c-1.33 11.97-1.744 25.1-1.877 37.372a552.7 552.7 0 0 0 40.65 5.002l11.18-45.418c-13.402-1.03-30.389-2.98-48.666-5.94zm263.536 0c-18.277 2.96-35.264 4.909-48.666 5.939l11.18 45.418a552.7 552.7 0 0 0 40.65-5.002c-.133-12.272-.547-25.402-1.877-37.372-.345-3.098-.78-6.102-1.287-8.984zm-360.682 36.76l1.447 24.82c34.692 13.847 77.37 23.68 123.403 29.513l5.396-21.92c-20.851-1.924-44.708-5.38-67.283-10.397-18.38-4.084-35.837-9.177-50.203-15.562-4.55-2.022-8.838-4.14-12.76-6.453zm457.828 0c-3.922 2.314-8.21 4.432-12.76 6.454-14.366 6.385-31.824 11.478-50.203 15.562-22.575 5.017-46.432 8.473-67.283 10.397l5.396 21.92c46.033-5.834 88.711-15.666 123.403-29.514z" fill="#fff" fill-opacity="1"></path></g></svg>

<?xml version="1.0" encoding="UTF-8" standalone="no"?>
<!DOCTYPE svg PUBLIC "-//W3C//DTD SVG 1.1//EN" "http://www.w3.org/Graphics/SVG/1.1/DTD/svg11.dtd">
<svg width="100%" height="100%" viewBox="0 0 512 512" version="1.1" xmlns="http://www.w3.org/2000/svg" xmlns:xlink="http://www.w3.org/1999/xlink" xml:space="preserve" xmlns:serif="http://www.serif.com/" style="fill-rule:evenodd;clip-rule:evenodd;stroke-linejoin:round;stroke-miterlimit:2;">
    <rect x="0" y="0" width="512" height="512" style="fill-rule:nonzero;"/>
    <g>
        <path d="M41.637,149.081C33.637,157.081 29.023,161.272 25.949,167.419C25.674,167.974 25.42,168.538 25.187,169.112C27.711,172.223 33.254,176.425 41.1,180.431C41.222,177.842 41.487,176.597 42.05,175.47C42.977,173.616 46.363,169.808 54.363,161.808L41.637,149.081ZM470.363,149.081L457.637,161.808C465.637,169.808 469.023,173.616 469.949,175.47C470.513,176.597 470.778,177.842 470.9,180.43C478.746,176.425 484.29,172.223 486.813,169.112C486.58,168.538 486.326,167.974 486.051,167.419C482.977,161.272 478.363,157.081 470.363,149.081ZM25,192.235L25,232.695C27.57,236.522 33.588,241.465 42.594,246.045C42.504,238.221 42.543,229.42 43.014,220.945C43.385,214.253 43.988,207.789 45.127,201.878C44.194,201.516 43.27,201.151 42.359,200.78C35.953,198.174 30.195,195.362 25,192.235ZM487,192.235C481.805,195.362 476.047,198.175 469.64,200.78C468.73,201.15 467.806,201.516 466.873,201.878C468.012,207.789 468.615,214.253 468.986,220.944C469.457,229.42 469.496,238.221 469.406,246.046C478.412,241.466 484.43,236.522 487,232.694L487,192.235ZM62.408,207.765C61.756,211.945 61.27,216.835 60.986,221.945C60.386,232.755 60.547,244.131 60.748,253.485C70.765,256.932 82.098,260.026 93.953,262.661C96.976,263.333 100.031,263.966 103.096,264.577C103.263,252.907 103.73,240.371 105.055,228.45C105.437,225.013 105.863,221.62 106.369,218.298C102.955,217.646 99.547,216.964 96.146,216.251C84.529,213.805 73.084,210.991 62.408,207.765ZM449.592,207.765C438.916,210.99 427.471,213.805 415.854,216.251C412.453,216.964 409.045,217.646 405.631,218.298C406.137,221.619 406.563,225.013 406.945,228.45C408.27,240.371 408.737,252.906 408.905,264.577C411.969,263.966 415.025,263.333 418.047,262.661C429.902,260.026 441.235,256.932 451.252,253.485C451.453,244.131 451.614,232.755 451.014,221.945C450.73,216.835 450.244,211.945 449.592,207.765ZM124.232,221.455C123.708,224.435 123.279,227.431 122.945,230.438C121.615,242.408 121.201,255.538 121.068,267.81C134.552,269.979 148.111,271.647 161.718,272.812L172.898,227.394C159.496,226.364 142.509,224.414 124.232,221.454L124.232,221.455ZM387.768,221.455C369.491,224.415 352.504,226.364 339.102,227.394L350.282,272.812C363.889,271.647 377.448,269.979 390.932,267.81C390.799,255.538 390.385,242.408 389.055,230.438C388.71,227.34 388.275,224.336 387.768,221.454L387.768,221.455Z" style="fill:rgb(157,157,157);fill-rule:nonzero;"/>
        <path d="M199.053,196.445L247,196.443L247,241.006L279,257.006L279,293.881L247,309.881L247,362.918L170.271,313.365L199.053,196.445ZM265,196.445L312.947,196.444L341.727,313.364L265,362.919L265,321.007L297,305.007L297,245.882L265,229.882L265,196.445Z" style="fill:rgb(255,211,157);"/>
        <path d="M27.086,258.216C31.008,260.529 35.296,262.647 39.846,264.669C54.212,271.054 71.669,276.147 90.049,280.231C112.624,285.248 136.481,288.704 157.332,290.628L151.936,312.548C105.903,306.715 63.225,296.882 28.533,283.035L27.086,258.216ZM484.914,258.215L483.467,283.034C448.775,296.882 406.097,306.714 360.064,312.548L354.668,290.628C375.519,288.704 399.376,285.248 421.951,280.231C440.33,276.147 457.788,271.054 472.154,264.669C476.704,262.647 480.992,260.529 484.914,258.215Z" style="fill:rgb(134,134,134);"/>
    </g>
</svg>
